X:7343
T:The Snow it Melts the Soonest
O:england
C:Trad
R:Air
M:C
K:EDor
L:1/8
EF | G2 B2 B3 c | d2 B4 BA | G2 E2 E3 F | E6 EF |
G2 B2 B3 c | d6 ed | c2 A2 B2 ^G2 | A6 EF |
G2 B2 B3 c | d2 d4 ed | c2 A2 A2 c2 | d4 =c4 |
B2 E2 G3 A | B=c d2 c2 BA | B2 E2 E3 D | E8 |


